!!!OTL: A SCHLOSSER HAT AN GSELLEN GHOT
!!!ARE: Europa, Mitteleuropa, Deutschland
!!!SCT: B0689
!!!YEM: Copyright 1995, estate of Helmut Schaffrath.
**kern
*ICvox
*Ivox
*M2/4
*k[]
*C:
{8G
=1
8E
8G
8c
8B
=2
8A
8F
8d}
{8c
=3
8B
8G
8A
8B
=4
16c
16B
16c
16d
8e}
{8G
=5
8E
8G
8c
8B
=6
8A
8F
8d}
{8c
=7
8B
8G
8A
8B
=8
4c
8r}
{8d
=9
8d
8c
8A
8e
=10
8d
8B
8G}
{8d
=11
8d
8c
8A
8B
=12
4G
8r}
{8G
=13
8c
8d
8e
8c
=14
8A
8F
8d}
{8c
=15
8B
8G
8A
8B
=16
16c
16B
16c
16d
8e}
{8G
=17
8c
8d
8e
8c
=18
8A
8F
8d}
{8c
=19
8B
8G
8A
8B
=20
4c
8r}
==
!!!AGN: Scherz -, Handwerker - Lied
!!!ONB: ESAC (Essen Associative Code) Database: BOEHME
!!!AMT: simple duple
!!!AIN: vox
!!!EED: Helmut Schaffrath
!!!EEV: 1.0
*-
